X:1
T:Easter-Tide, 67.67 refrain
T:Easter-Tide, 67.67 refrain
T:Adapted from David\'s Psalmen, Amsterdam, 1685
T:Public Domain Courtesy of the Cyber Hymnal™
C:Adapted from David\'s Psalmen, Amsterdam, 1685
Z:Public Domain
Z:Courtesy of the Cyber Hymnal™
%%score ( 1 2 ) ( 3 4 )
L:1/8
Q:1/4=115
M:4/4
K:A
V:1 treble 
V:2 treble 
V:3 bass 
V:4 bass 
V:1
|: B,2 | [B,E]2 F2 [EG]2 [EA]2 | B6 [EB]2 | c3 z [CA]2 [Cc]2 | (B3 A) [EG]2 FE x4 | F4 [B,E]2 :| %6
"^Refrain" [B,E]2 | [B,F]2 [B,G]2 [CA]2 G2 | [DF]3 [EG] [EA]2 [DB]2 | [Cc]2 [EB]2 B2 ^A2 | %10
 [DB]6 [B,B]2 | A2 z D G2 [=EG]2 x2 | [CF]6 [B,E]2 | D2 z ^A, [B,F]2 [B,G]2 | [CA]4 [B,F]2 [B,F]2 | %15
 [DB]4 [CG]2 [CG]2 | [Ec]4 B2 [DB]2 | e3 d c2 BA | G2 FE F4 | [B,E]8 |] %20
V:2
|: B,2 | x2 (CD) x4 | (E2 DC D2) x2 | E2 (E2 B) x3 | F4 B,2 x6 | C2 D2 x2 :| x2 | x6 B,C | x8 | %9
 x4 C4 | x8 | C3 (A2 ^E)D x3 | x8 | B,3 E2 x3 | x8 | x8 | x4 (FE) x2 | E6 F2 | B,4 C2 D2 | x8 |] %20
V:3
|: [E,G,]2 | [G,B,]2 [F,A,]2 G,2 [C,E,]2 | [B,,F,]6 [E,G,]2 | A,2 [E,G,]2 [F,A,]2 ([F,A,][E,G,]) | %4
 F,2 z2 z2 G,2 x4 | (A,G,) [B,,F,]2 [E,G,]2 :| [E,G,]2 | [D,F,]2 E,2 ([C,E,][D,F,]) (G,A,) | %8
 [B,,B,]3 [E,B,] (A,E,) (F,G,) | [A,,A,]2 [E,G,]2 F,4 | [B,,F,]6 [G,,G,]2 | G,2 z B,, A,3 z x2 | %12
 [F,,A,]6 G,2 | [B,,F,]2 [C,E,]2 [B,,D,]2 E,2 | (E,2 F,E,) D,2 F,2 | (F,2 G,F,) E,2 G,2 | %16
 (G,2 A,G,) [D,F,]2 B,2 | B,2 [E,G,]2 A,2 [D,F,]2 | [E,G,]2 [G,,B,]2 (A,G,) [B,,F,]2 | [E,G,]8 |] %20
V:4
|: x2 | x4 (E,D,) x2 | x8 | A,2 x6 | D,4 B,4 E,4 | A,,2 x4 :| x2 | x2 E,2 E,2 x2 | x4 C,2 B,,2 | %9
 x4 F,4 | x8 | A,,3 (F,2 C,2) (C,2 B,) | x6 G,,A,, | x6 E,2 | A,,4 (B,,C,) D,B,, | %15
 B,,4 (C,D,) (E,D,) | C,4 (B,A,) x2 | (G,F,) x (A, G,) x3 | x4 A,,2 x2 | x8 |] %20

